places/24/folder-git.svg

<?xml version="1.0" encoding="UTF-8" standalone="no"?>
<!-- Created with Inkscape (http://www.inkscape.org/) -->

<svg
   xmlns:dc="http://purl.org/dc/elements/1.1/"
   xmlns:cc="http://creativecommons.org/ns#"
   xmlns:rdf="http://www.w3.org/1999/02/22-rdf-syntax-ns#"
   xmlns:svg="http://www.w3.org/2000/svg"
   xmlns="http://www.w3.org/2000/svg"
   xmlns:sodipodi="http://sodipodi.sourceforge.net/DTD/sodipodi-0.dtd"
   xmlns:inkscape="http://www.inkscape.org/namespaces/inkscape"
   id="svg13094"
   height="24"
   width="24"
   version="1.1"
   inkscape:version="0.91+devel r"
   sodipodi:docname="folder-git.svg">
  <defs
     id="defs2989" />
  <sodipodi:namedview
     pagecolor="#ffffff"
     bordercolor="#666666"
     borderopacity="1"
     objecttolerance="10"
     gridtolerance="10"
     guidetolerance="10"
     inkscape:pageopacity="0"
     inkscape:pageshadow="2"
     inkscape:window-width="1920"
     inkscape:window-height="1032"
     id="namedview2987"
     showgrid="true"
     inkscape:zoom="29.5"
     inkscape:cx="18.365548"
     inkscape:cy="12.656416"
     inkscape:window-x="-7"
     inkscape:window-y="25"
     inkscape:window-maximized="1"
     inkscape:current-layer="svg13094"
     inkscape:snap-bbox="false"
     inkscape:bbox-paths="true"
     inkscape:bbox-nodes="true"
     inkscape:snap-bbox-edge-midpoints="true"
     inkscape:snap-bbox-midpoints="true"
     inkscape:object-paths="true"
     inkscape:snap-intersection-paths="true"
     inkscape:object-nodes="true"
     inkscape:snap-smooth-nodes="true"
     inkscape:snap-midpoints="true"
     inkscape:snap-object-midpoints="true"
     inkscape:snap-center="true"
     inkscape:snap-nodes="true">
    <inkscape:grid
       type="xygrid"
       id="grid3750" />
  </sodipodi:namedview>
  <metadata
     id="metadata13099">
    <rdf:RDF>
      <cc:Work
         rdf:about="">
        <dc:format>image/svg+xml</dc:format>
        <dc:type
           rdf:resource="http://purl.org/dc/dcmitype/StillImage" />
        <dc:title></dc:title>
      </cc:Work>
    </rdf:RDF>
  </metadata>
  <path
     id="path4193"
     d="m 20.660975,11.19828 -7.85976,-7.8587989 c -0.452231,-0.4526414 -1.186304,-0.4526414 -1.639103,0 L 9.5301185,4.9716318 11.600249,7.0417617 c 0.481255,-0.1624879 1.032868,-0.053543 1.416305,0.3299695 0.385428,0.3859015 0.493596,0.9422234 0.327031,1.4250907 l 1.995236,1.9952371 c 0.482709,-0.166344 1.039647,-0.05888 1.42509,0.327252 0.538879,0.53872 0.538879,1.41166 0,1.950522 -0.538957,0.539036 -1.411897,0.539036 -1.951155,0 -0.405193,-0.405509 -0.505412,-1.000857 -0.300185,-1.500093 l -1.860778,-1.8607783 -1.58e-4,4.8966103 c 0.131378,0.06504 0.255362,0.151839 0.36484,0.260844 0.538721,0.538657 0.538721,1.411439 0,1.950996 -0.538878,0.538642 -1.412213,0.538642 -1.950523,0 -0.5388,-0.53951 -0.5388,-1.412292 0,-1.950996 0.133156,-0.132919 0.287231,-0.233526 0.451631,-0.300961 l 0,-4.9421142 C 11.353103,9.5561904 11.199211,9.4563338 11.065858,9.3223488 10.65774,8.9145482 10.559448,8.3155662 10.768752,7.8144026 L 8.7280109,5.7733448 3.3392279,11.161971 c -0.4527853,0.452989 -0.4527853,1.187062 0,1.639734 l 7.8592871,7.858814 c 0.452483,0.452641 1.186303,0.452641 1.639418,0 l 7.822947,-7.821683 c 0.452642,-0.452863 0.452642,-1.187157 0,-1.639893"
     inkscape:connector-curvature="0"
     style="opacity:1;fill:#27303a;fill-opacity:0.753280819999999968;stroke:none;stroke-width:3.06129146;stroke-linecap:butt;stroke-linejoin:miter;stroke-miterlimit:4;stroke-dasharray:none;stroke-dashoffset:0;stroke-opacity:1;marker:none" />
  <path
     style="color:#000000;font-style:normal;font-variant:normal;font-weight:normal;font-stretch:normal;font-size:medium;line-height:normal;font-family:sans-serif;text-indent:0;text-align:start;text-decoration:none;text-decoration-line:none;text-decoration-style:solid;text-decoration-color:#000000;letter-spacing:normal;word-spacing:normal;text-transform:none;direction:ltr;block-progression:tb;writing-mode:lr-tb;baseline-shift:baseline;text-anchor:start;white-space:normal;shape-padding:0;clip-rule:nonzero;display:inline;overflow:visible;visibility:visible;opacity:1;isolation:auto;mix-blend-mode:normal;color-interpolation:sRGB;color-interpolation-filters:linearRGB;solid-color:#000000;solid-opacity:1;fill:#f1f3f5;fill-opacity:0.90288714000000003;fill-rule:nonzero;stroke:none;stroke-width:2;stroke-linecap:butt;stroke-linejoin:miter;stroke-miterlimit:4;stroke-dasharray:none;stroke-dashoffset:0;stroke-opacity:1;marker:none;color-rendering:auto;image-rendering:auto;shape-rendering:auto;text-rendering:auto;enable-background:accumulate"
     d="M 11.982422,1.90625 C 11.401946,1.9062269 10.821367,2.126051 10.384766,2.5625 L 8.7285156,4.2167969 7.9746094,4.9707031 2.5605469,10.384766 c -0.8728443,0.873237 -0.8732857,2.322245 0,3.195312 L 10.419922,21.4375 c 0.872888,0.873193 2.322086,0.874219 3.195312,0.002 l 7.824219,-7.822265 c 0.872936,-0.873363 0.873113,-2.322018 0,-3.195313 l 0,-0.002 L 13.580078,2.5625 C 13.143629,2.1256551 12.562898,1.9062731 11.982422,1.90625 Z m 0,1.09375 c 0.296647,0 0.592244,0.113523 0.818359,0.3398438 l 7.859375,7.8593752 c 0.452642,0.452736 0.452642,1.185809 0,1.638672 l -7.822265,7.822265 c -0.453115,0.452641 -1.186189,0.452641 -1.638672,0 L 3.3398438,12.800781 c -0.4527853,-0.452672 -0.4527853,-1.185683 0,-1.638672 L 8.7285156,5.7734375 10.769531,7.8144531 c -0.209304,0.5011636 -0.111243,1.1000119 0.296875,1.5078125 0.133353,0.133985 0.286692,0.2336309 0.451172,0.3007813 l 0,4.9433591 c -0.1644,0.06743 -0.318016,0.167863 -0.451172,0.300782 -0.5388,0.538703 -0.5388,1.411661 0,1.951171 0.53831,0.538642 1.410341,0.538642 1.949219,0 0.538721,-0.539557 0.538721,-1.412514 0,-1.951171 -0.109478,-0.109005 -0.231903,-0.196679 -0.363281,-0.261719 l 0,-4.8964846 1.859375,1.8613276 c -0.205227,0.499236 -0.104412,1.094491 0.300781,1.5 0.539258,0.539036 1.412215,0.539036 1.951172,0 0.538879,-0.538861 0.538879,-1.412451 0,-1.951171 C 16.378229,10.733009 15.8206,10.626625 15.337891,10.792969 L 13.34375,8.796875 C 13.510315,8.3140077 13.401053,7.7569953 13.015625,7.3710938 12.632188,6.9875812 12.080864,6.8785277 11.599609,7.0410156 L 9.5292969,4.9707031 11.162109,3.3398438 C 11.388509,3.113523 11.685775,3 11.982422,3 Z"
     id="path4161"
     inkscape:connector-curvature="0"
     sodipodi:nodetypes="sccccsccccccssccccccccccccccccccccccccccccs" />
</svg>

<?xml version="1.0" encoding="UTF-8"?>
<svg id="b" width="24" height="24" version="1.1" xmlns="http://www.w3.org/2000/svg" xmlns:cc="http://creativecommons.org/ns#" xmlns:dc="http://purl.org/dc/elements/1.1/" xmlns:rdf="http://www.w3.org/1999/02/22-rdf-syntax-ns#">
	<metadata id="d">
		<rdf:RDF>
			<cc:Work rdf:about="">
				<dc:format>image/svg+xml</dc:format>
				<dc:type rdf:resource="http://purl.org/dc/dcmitype/StillImage"/>
				<dc:title/>
			</cc:Work>
		</rdf:RDF>
	</metadata>
	<defs>
		<style id="current-color-scheme" type="text/css">.ColorScheme-Text {color:#090d11;}.ColorScheme-Background{color:#ffffff;}</style>
	</defs>
	<path id="a" d="m20.661 11.198-7.8598-7.8588c-0.45223-0.45264-1.1863-0.45264-1.6391 0l-1.632 1.6322 2.0701 2.0701c0.48126-0.16249 1.0329-0.053543 1.4163 0.32997 0.38543 0.3859 0.4936 0.94222 0.32703 1.4251l1.9952 1.9952c0.48271-0.16634 1.0396-0.05888 1.4251 0.32725 0.53888 0.53872 0.53888 1.4117 0 1.9505-0.53896 0.53904-1.4119 0.53904-1.9512 0-0.40519-0.40551-0.50541-1.0009-0.30018-1.5001l-1.8608-1.8608-1.58e-4 4.8966c0.13138 0.06504 0.25536 0.15184 0.36484 0.26084 0.53872 0.53866 0.53872 1.4114 0 1.951-0.53888 0.53864-1.4122 0.53864-1.9505 0-0.5388-0.53951-0.5388-1.4123 0-1.951 0.13316-0.13292 0.28723-0.23353 0.45163-0.30096v-4.9421c-0.16448-0.06715-0.31837-0.16701-0.45172-0.30099-0.40812-0.4078-0.50641-1.0068-0.29711-1.5079l-2.0407-2.0411-5.3888 5.3886c-0.45279 0.45299-0.45279 1.1871 0 1.6397l7.8593 7.8588c0.45248 0.45264 1.1863 0.45264 1.6394 0l7.8229-7.8217c0.45264-0.45286 0.45264-1.1872 0-1.6399" style="fill-opacity:.75;fill:currentColor" class="ColorScheme-Text"/>
	<path id="c" d="m11.982 1.9062c-0.58048-2.31e-5 -1.1611 0.2198-1.5977 0.65625l-1.6563 1.6543-0.75391 0.75391-5.4141 5.4141c-0.87284 0.87324-0.87329 2.3222 0 3.1953l7.8594 7.8574c0.87289 0.87319 2.3221 0.87422 3.1953 2e-3l7.8242-7.8223c0.87294-0.87336 0.87311-2.322 0-3.1953v-2e-3l-7.8594-7.8574c-0.43645-0.43684-1.0172-0.65623-1.5977-0.65625zm0 1.0938c0.29665 0 0.59224 0.11352 0.81836 0.33984l7.8594 7.8594c0.45264 0.45274 0.45264 1.1858 0 1.6387l-7.8223 7.8223c-0.45312 0.45264-1.1862 0.45264-1.6387 0l-7.8594-7.8594c-0.45279-0.45267-0.45279-1.1857 0-1.6387l5.3887-5.3887 2.041 2.041c-0.2093 0.50116-0.11124 1.1 0.29688 1.5078 0.13335 0.13398 0.28669 0.23363 0.45117 0.30078v4.9434c-0.1644 0.06743-0.31802 0.16786-0.45117 0.30078-0.5388 0.5387-0.5388 1.4117 0 1.9512 0.53831 0.53864 1.4103 0.53864 1.9492 0 0.53872-0.53956 0.53872-1.4125 0-1.9512-0.10948-0.109-0.2319-0.19668-0.36328-0.26172v-4.8965l1.8594 1.8613c-0.20523 0.49924-0.10441 1.0945 0.30078 1.5 0.53926 0.53904 1.4122 0.53904 1.9512 0 0.53888-0.53886 0.53888-1.4125 0-1.9512-0.38544-0.38613-0.94307-0.49252-1.4258-0.32617l-1.9941-1.9961c0.16656-0.48287 0.057303-1.0399-0.32812-1.4258-0.38344-0.38351-0.93476-0.49257-1.416-0.33008l-2.0703-2.0703 1.6328-1.6309c0.2264-0.22632 0.52367-0.33984 0.82031-0.33984z" style="fill-opacity:.5;fill:currentColor" class="ColorScheme-Background"/>
</svg>
